X:1
T:Overture
T:Whiplash – Overture
T:Arranged by Bruh9730
%%score { ( 1 3 ) | 2 }
L:1/8
Q:1/4=140
M:6/8
K:Eb
V:1 treble nm="Piano" snm="Pno."
V:3 treble 
V:2 bass 
V:1
"^Light swing" z6 | z6 |!p! !>!G/F/E/!>!G/F/E/ !>![DEG]3 | %3
 !>!G/F/E/!>!G/F/E/ !>![DEG]2!mp! G/4A/4B/4c/4 | d6 | z3 cGE | B2 A4 | z3 z DE | %8
!p! !>!G/F/E/!>!G/F/E/ !>![DEG]3 |!p! !>!G/F/E/!>!G/F/E/ !>![DEG]3 | %10
 !>!G/!p!F/E/!>!G/F/E/ [DGB]2 !>![Dc] | !>!G/F/E/!>!G/F/E/ !>![DEG]2!mp! G/4A/4B/4c/4 | d6 | %13
 z3 cGE | .[EGB] z [EA]4 | z3 z B=B | .[deg] z/ .[deg]3/2 [deg]3 | %17
 .[deg]/.[deg]3/4 z/ .[deg] z/4 .[deg]3 | A/G/A/B/c A/G/A/B/_c | B/_c/_dc/=c/ =d/e/d/e/f/g/ | %20
 d2 e3/2 !arpeggio![deg]2 z/ | .[deg] z/ .[deg]3/2 [deg]2 .[deg] | !arpeggio![A,CA]3 FCA, | %23
 E3 [_CD]3 | a/g/f/g/f/e/ df/e/d/e/ | d/c/=B/c/_B/A/ G/F/E/D/E/F/ | [A,CA]3{_f} =fcA | %27
 [Ae]3 [_cd]3 |!mp!"_cresc." [DG][DG]/A[DG]/ A[DG][DG] | [Ac][Ac]/d[Ac]/ d[Ac][Ac] | %30
 [df][df]/g[df]/ g[db][da] |!f! [dg]>.[da] z [_cdf=b]2 G/4A/4B/4=c/4 | d6 | z3 cGE | B2 A4 | %35
 z3/2 [CEF]/ z [CEF]DE |!p! !>!G/F/E/!>!G/F/E/ !>![DEG]3 |!p! !>!G/F/E/!>!G/F/E/ !>![DEG]3 | %38
 !>!G/!p!F/E/!>!G/F/E/ [DGB]2 !>![Dc] | !>!G/F/E/!>!G/F/E/ !>![DEG]2!mp! G/4A/4B/4c/4 | d6 | %41
 z3 cGE | .[EGB] z [EA]3 !>![dg]- | [dg]!>![dg]3/2 z/ !>![dg]^cd | .[deg] z/ .[deg]3/2 !^![deg]3 | %45
 .[deg]/.[deg]3/4 z/ .[deg] z/4 .[deg]3 | !>!G/F/E/!>!G/F/E/ [DGB]2 !>![Dc] | %47
 !>!G/F/E/!>!G/F/E/ !>![DEG]g/f/e/d/ | d/.[Gc] z/ [Gc] z/ [Gc] z/ [Gc] | [FB] z [_G_c] z [=G=c] z | %50
 d/.[Gc] z/ [Gc] z/ [Gc]2 z/ | [Gc] z z4 | [Af]/[Ae][Ae]3/2 [Ae]3 | [B,F]E/F/[=B,G] F/G/[CA]G/A/ | %54
 [FB]A/B/[Gc] =B/c/ [Gd]2 | cGB Ade | b/aa/a a z/ z/ z |] %57
V:2
 C,,3/2G,,3/2 F,,G,,G,,, | C,,3/2G,,3/2 F,,E,,G,,, | C,,3/2G,,3/2 F,,G,,G,,, | %3
 C,,3/2G,,3/2 F,,E,,G,,, | C,,3/2G,,3/2 F,,G,,G,,, | C,,3/2G,,3/2 F,,E,,C,, | %6
 F,,3/2C,3/2 B,,C,C,, | F,,3/2C,3/2 B,,A,,G,,, | C,,3/2G,,3/2 F,,G,,G,,, | %9
 C,,3/2G,,3/2 F,,E,,G,,, | C,,3/2G,,3/2 F,,G,,G,,, | C,,3/2G,,3/2 F,,E,,G,,, | %12
 C,,3/2G,,3/2 F,,G,,G,,, | C,,3/2G,,3/2 F,,E,,G,,, | F,,3/2C,3/2 B,,C,C,, | %15
 F,,3/2C,3/2 B,,A,,G,,, | C,,3/2G,,3/2 F,,G,,G,,, | C,,3/2G,,3/2 F,,E,,G,,, | %18
 [F,,,F,,]2 [F,,,F,,]2 [A,,,A,,]2 | [G,,,G,,]2 [G,,,G,,]2 [=B,,,=B,,]2 | C,,3/2G,,3/2 F,,G,,G,,, | %21
 C,,3/2G,,3/2 F,,E,,G,,, |!8vb(! F,,,3/2A,,,3/2 C,,A,,,F,,, | G,,,3/2_C,,3/2 E,,D,,A,,, | %24
 F,,,3/2C,,3/2 F,,,A,,,F,,, | G,,,3/2_C,,3/2 D,,D,,A,,,!8vb)! |!8vb(! F,,,3/2A,,,3/2 C,,A,,,F,,, | %27
 G,,,3/2_C,,3/2 E,,D,,A,,, | G,,,>D,,G,, G,,,G,,D,, | G,,,3/2D,,F,,/ G,,F,,D,, | %30
 G,,,>D,,G,, G,,,G,,D,, | [G,,,G,,]3/2[G,,,G,,]3/2 [G,,,G,,]3!8vb)! | C,,3/2G,,3/2 F,,G,,G,,, | %33
 C,,3/2G,,3/2 F,,E,,C,, | F,,3/2C,3/2 B,,C,C,, | F,,3/2C,3/2 B,,A,,C,, | G,,,3/2G,,3/2 F,,G,,G,,, | %37
 C,,3/2G,,3/2 F,,E,,G,,, | C,,3/2G,,3/2 F,,G,,G,,, | C,,3/2G,,3/2 F,,E,,G,,, | %40
 C,,3/2G,,3/2 F,,G,,G,,, | C,,3/2G,,3/2 F,,E,,C,, | F,,3/2C,3/2 B,,C,C,, | F,,3/2C,3/2 B,,A,,G,,, | %44
 C,,3/2G,,3/2 F,,G,,G,,, | C,,3/2G,,3/2 F,,E,,G,,, |!mp! C,,3/2G,,3/2 F,,G,,G,,, | %47
 C,,3/2G,,3/2 F,,E,,G,,, |!8vb(! C,,B,,,G,,, B,,,C,,B,,, | B,,, z =B,,, z C,, z | %50
 C,,G,,B,, C,C,,C, | [C,,C,] z z4 | F,,,2 A,,,2 C,,2 | F,,2 G,,2 A,,2 | G,,2 G,,2 C,,B,,, | %55
 C,, B,,,2 G,,B,,,F,,, | [G,,,G,,]3/2[G,,,G,,]3/2 [A,,,A,,] z/ z/ z!8vb)! |] %57
V:3
 x6 | x6 | D3/2D3/2 x3 | D3/2D3/2 x3 | x6 | x6 | F6 | x6 | D3/2D3/2 x3 | D3/2D3/2 x3 | %10
 D3/2D3/2 x3 | D3/2D3/2 x3 | x6 | x6 | x6 | x6 | x6 | x6 | x6 | x6 | x6 | x6 | x6 | x6 | x6 | x6 | %26
 x6 | x6 | x6 | x6 | x6 | x6 | x6 | x6 | F6 | x6 | D3/2D3/2 x3 | D3/2D3/2 x3 | D3/2D3/2 x3 | %39
 D3/2D3/2 x3 | x6 | x6 | x6 | x6 | x6 | x6 | D3/2D3/2 x3 | D3/2D3/2 x3 | x6 | x6 | x6 | x6 | x6 | %53
 x6 | x4 E2 | x2 F2 x2 | x6 |] %57

